Papirus/64x64/apps/multiwinia.svg

<?xml version="1.0" encoding="UTF-8" standalone="no"?>
<svg
   id="_图层_1"
   version="1.1"
   viewBox="0 0 64 64" width="64" height="64"
   sodipodi:docname="multiwinia.svg"
   xml:space="preserve"
   inkscape:version="1.4 (e7c3feb100, 2024-10-09)"
   xmlns:inkscape="http://www.inkscape.org/namespaces/inkscape"
   xmlns:sodipodi="http://sodipodi.sourceforge.net/DTD/sodipodi-0.dtd"
   xmlns="http://www.w3.org/2000/svg"
   xmlns:svg="http://www.w3.org/2000/svg"><sodipodi:namedview
     id="namedview26"
     pagecolor="#505050"
     bordercolor="#eeeeee"
     borderopacity="1"
     inkscape:showpageshadow="0"
     inkscape:pageopacity="0"
     inkscape:pagecheckerboard="0"
     inkscape:deskcolor="#505050"
     inkscape:zoom="10.6875"
     inkscape:cx="32"
     inkscape:cy="32"
     inkscape:window-width="1920"
     inkscape:window-height="939"
     inkscape:window-x="0"
     inkscape:window-y="34"
     inkscape:window-maximized="1"
     inkscape:current-layer="_图层_1" /><!-- Generator: Adobe Illustrator 29.0.1, SVG Export Plug-In . SVG Version: 2.1.0 Build 192)  --><defs
     id="defs6"><style
       id="style1">
      .st0 {
        fill-opacity: .5;
      }

      .st0, .st1, .st2, .st3, .st4, .st5, .st6, .st7 {
        fill: #fff;
      }

      .st8 {
        fill: #133c9a;
      }

      .st2, .st9 {
        display: none;
      }

      .st3 {
        fill-opacity: .2;
      }

      .st4 {
        fill-opacity: .9;
      }

      .st10 {
        fill: #3370ff;
      }

      .st11 {
        fill: url(#_未命名的渐变_3);
      }

      .st12 {
        fill: url(#_未命名的渐变);
      }

      .st5 {
        fill-opacity: .3;
      }

      .st6 {
        fill-opacity: 0;
      }

      .st7 {
        fill-opacity: .7;
      }

      .st13 {
        fill: #00d6b9;
      }

      .st14 {
        fill: url(#_未命名的渐变_2);
      }
    </style><radialGradient
       id="_未命名的渐变"
       data-name="未命名的渐变"
       cx="123.9"
       cy="-40.2"
       fx="123.9"
       fy="-40.2"
       r="59.4"
       gradientTransform="translate(-26.8 25.5) scale(.6 -.7)"
       gradientUnits="userSpaceOnUse"><stop
         offset="0"
         stop-color="#db202e"
         id="stop1" /><stop
         offset="1"
         stop-color="#e01b24"
         id="stop2" /></radialGradient><radialGradient
       id="_未命名的渐变_2"
       data-name="未命名的渐变 2"
       cx="67.6"
       cy="26.8"
       fx="67.6"
       fy="26.8"
       r="105.2"
       gradientTransform="translate(-26.6 25.3) scale(.6 -.7)"
       gradientUnits="userSpaceOnUse"><stop
         offset="0"
         stop-color="#ffb648"
         id="stop3" /><stop
         offset="1"
         stop-color="#ff7800"
         stop-opacity="0"
         id="stop4" /></radialGradient><radialGradient
       id="_未命名的渐变_3"
       data-name="未命名的渐变 3"
       cx="61.7"
       cy="18.6"
       fx="61.7"
       fy="18.6"
       r="68"
       gradientTransform="translate(-26.8 25.8) scale(.6 -.7)"
       gradientUnits="userSpaceOnUse"><stop
         offset="0"
         stop-color="#c64600"
         id="stop5" /><stop
         offset="1"
         stop-color="#a51d2d"
         id="stop6" /></radialGradient></defs><path
     class="st1"
     d="M47.5,64.1H13.8c-7.6,0-13.8-6.3-13.8-13.8V13.7C0,6.2,6.2,0,13.7,0h36.6c7.5,0,13.7,6.2,13.7,13.7v36.6c0,7.5-6.2,13.7-13.7,13.7h-2.9.1Z"
     id="path6"
     style="fill:#ececec;fill-opacity:1" /><g
     id="g36"
     transform="translate(0.5,-0.5)"><path
       style="opacity:0.2"
       d="m 28,5 a 7.0007,7.0007 0 0 0 -7,7 h -7 a 7.0007,7.0007 0 0 0 -7,7 v 7 a 7.0007,7.0007 0 0 0 7,7 h 0.950195 A 7.0007,7.0007 0 0 0 14,36.5 V 54 a 7.0007,7.0007 0 0 0 7,7 h 7 A 7.0007,7.0007 0 0 0 31.5,60.056641 7.0007,7.0007 0 0 0 35,61 h 7 a 7.0007,7.0007 0 0 0 7,-7 V 36.5 A 7.0007,7.0007 0 0 0 48.056641,33 H 49 a 7.0007,7.0007 0 0 0 7,-7 V 19 A 7.0007,7.0007 0 0 0 49,12 H 42 A 7.0007,7.0007 0 0 0 35,5 Z"
       id="path1-2" /><path
       style="fill:#556765"
       d="m 28,4 a 7.0007,7.0007 0 0 0 -7,7 h -7 a 7.0007,7.0007 0 0 0 -7,7 v 7 a 7.0007,7.0007 0 0 0 7,7 h 0.950195 A 7.0007,7.0007 0 0 0 14,35.5 V 53 a 7.0007,7.0007 0 0 0 7,7 h 7 A 7.0007,7.0007 0 0 0 31.5,59.056641 7.0007,7.0007 0 0 0 35,60 h 7 a 7.0007,7.0007 0 0 0 7,-7 V 35.5 A 7.0007,7.0007 0 0 0 48.056641,32 H 49 a 7.0007,7.0007 0 0 0 7,-7 V 18 A 7.0007,7.0007 0 0 0 49,11 H 42 A 7.0007,7.0007 0 0 0 35,4 Z"
       id="path2-2" /><path
       style="opacity:0.2"
       d="m 28,12 v 7 H 14 v 7 h 14 v 11 h -7 v 17 h 7 V 43 h 7 v 11 h 7 V 37 H 35 V 26 H 49 V 19 H 35 v -7 z"
       id="path3" /><path
       style="fill:#eb3a49"
       d="m 28,11 v 7 H 14 v 7 h 14 v 11 h -7 v 17 h 7 V 42 h 7 v 11 h 7 V 36 H 35 V 25 H 49 V 18 H 35 v -7 z"
       id="path4-8" /><path
       style="opacity:0.1;fill:#ffffff"
       d="m 28,4 a 7.0007,7.0007 0 0 0 -7,7 h -7 a 7.0007,7.0007 0 0 0 -7,7 v 1 a 7.0007,7.0007 0 0 1 7,-7 h 7 a 7.0007,7.0007 0 0 1 7,-7 h 7 a 7.0007,7.0007 0 0 1 7,7 h 7 a 7.0007,7.0007 0 0 1 7,7 V 18 A 7.0007,7.0007 0 0 0 49,11 H 42 A 7.0007,7.0007 0 0 0 35,4 Z M 14.478516,33 A 7.0007,7.0007 0 0 0 14,35.5 v 1 A 7.0007,7.0007 0 0 1 14.949219,33 Z m 33.578125,0 A 7.0007,7.0007 0 0 1 49,36.5 v -1 A 7.0007,7.0007 0 0 0 48.525391,33 Z"
       id="path5-9" /><path
       style="opacity:0.2;fill:#ffffff"
       d="m 28,11 v 1 h 7 v -1 z m -14,7 v 1 h 14 v -1 z m 21,0 v 1 H 49 V 18 Z M 21,36 v 1 h 7 v -1 z m 14,0 v 1 h 7 v -1 z"
       id="path6-7" /></g></svg>

<svg xmlns="http://www.w3.org/2000/svg" width="64" height="64" version="1.1">
 <path style="opacity:0.2" d="m 28,5 a 7.0007,7.0007 0 0 0 -7,7 h -7 a 7.0007,7.0007 0 0 0 -7,7 v 7 a 7.0007,7.0007 0 0 0 7,7 h 0.950195 A 7.0007,7.0007 0 0 0 14,36.5 V 54 a 7.0007,7.0007 0 0 0 7,7 h 7 A 7.0007,7.0007 0 0 0 31.5,60.056641 7.0007,7.0007 0 0 0 35,61 h 7 a 7.0007,7.0007 0 0 0 7,-7 V 36.5 A 7.0007,7.0007 0 0 0 48.056641,33 H 49 a 7.0007,7.0007 0 0 0 7,-7 V 19 A 7.0007,7.0007 0 0 0 49,12 H 42 A 7.0007,7.0007 0 0 0 35,5 Z"/>
 <path style="fill:#556765" d="m 28,4 a 7.0007,7.0007 0 0 0 -7,7 h -7 a 7.0007,7.0007 0 0 0 -7,7 v 7 a 7.0007,7.0007 0 0 0 7,7 h 0.950195 A 7.0007,7.0007 0 0 0 14,35.5 V 53 a 7.0007,7.0007 0 0 0 7,7 h 7 A 7.0007,7.0007 0 0 0 31.5,59.056641 7.0007,7.0007 0 0 0 35,60 h 7 a 7.0007,7.0007 0 0 0 7,-7 V 35.5 A 7.0007,7.0007 0 0 0 48.056641,32 H 49 a 7.0007,7.0007 0 0 0 7,-7 V 18 A 7.0007,7.0007 0 0 0 49,11 H 42 A 7.0007,7.0007 0 0 0 35,4 Z"/>
 <path style="opacity:0.2" d="m 28,12 v 7 H 14 v 7 h 14 v 11 h -7 v 17 h 7 V 43 h 7 v 11 h 7 V 37 H 35 V 26 H 49 V 19 H 35 v -7 z"/>
 <path style="fill:#eb3a49" d="m 28,11 v 7 H 14 v 7 h 14 v 11 h -7 v 17 h 7 V 42 h 7 v 11 h 7 V 36 H 35 V 25 H 49 V 18 H 35 v -7 z"/>
 <path style="opacity:0.1;fill:#ffffff" d="m 28,4 a 7.0007,7.0007 0 0 0 -7,7 h -7 a 7.0007,7.0007 0 0 0 -7,7 v 1 a 7.0007,7.0007 0 0 1 7,-7 h 7 a 7.0007,7.0007 0 0 1 7,-7 h 7 a 7.0007,7.0007 0 0 1 7,7 h 7 a 7.0007,7.0007 0 0 1 7,7 V 18 A 7.0007,7.0007 0 0 0 49,11 H 42 A 7.0007,7.0007 0 0 0 35,4 Z M 14.478516,33 A 7.0007,7.0007 0 0 0 14,35.5 v 1 A 7.0007,7.0007 0 0 1 14.949219,33 Z m 33.578125,0 A 7.0007,7.0007 0 0 1 49,36.5 v -1 A 7.0007,7.0007 0 0 0 48.525391,33 Z"/>
 <path style="fill:#ffffff;opacity:0.2" d="M 28 11 L 28 12 L 35 12 L 35 11 L 28 11 z M 14 18 L 14 19 L 28 19 L 28 18 L 14 18 z M 35 18 L 35 19 L 49 19 L 49 18 L 35 18 z M 21 36 L 21 37 L 28 37 L 28 36 L 21 36 z M 35 36 L 35 37 L 42 37 L 42 36 L 35 36 z"/>
</svg>
